images/50866481.svg

<?xml version="1.0" encoding="UTF-8"?>
<svg xmlns="http://www.w3.org/2000/svg" xmlns:xlink="http://www.w3.org/1999/xlink" width="300pt" height="300pt" viewBox="0 0 300 300" version="1.1">
<defs>
<g>
<symbol overflow="visible" id="glyph0-0">
<path style="stroke:none;" d="M 0.453125 1.59375 L 0.453125 -6.34375 L 4.953125 -6.34375 L 4.953125 1.59375 Z M 0.953125 1.09375 L 4.453125 1.09375 L 4.453125 -5.84375 L 0.953125 -5.84375 Z M 0.953125 1.09375 "/>
</symbol>
<symbol overflow="visible" id="glyph0-1">
<path style="stroke:none;" d="M 3.546875 -5.953125 C 2.898438 -5.953125 2.382812 -5.710938 2 -5.234375 C 1.625 -4.753906 1.4375 -4.101562 1.4375 -3.28125 C 1.4375 -2.445312 1.625 -1.789062 2 -1.3125 C 2.382812 -0.832031 2.898438 -0.59375 3.546875 -0.59375 C 4.191406 -0.59375 4.703125 -0.832031 5.078125 -1.3125 C 5.453125 -1.789062 5.640625 -2.445312 5.640625 -3.28125 C 5.640625 -4.101562 5.453125 -4.753906 5.078125 -5.234375 C 4.703125 -5.710938 4.191406 -5.953125 3.546875 -5.953125 Z M 3.546875 -6.6875 C 4.460938 -6.6875 5.195312 -6.375 5.75 -5.75 C 6.300781 -5.132812 6.578125 -4.3125 6.578125 -3.28125 C 6.578125 -2.238281 6.300781 -1.410156 5.75 -0.796875 C 5.195312 -0.179688 4.460938 0.125 3.546875 0.125 C 2.617188 0.125 1.878906 -0.179688 1.328125 -0.796875 C 0.773438 -1.410156 0.5 -2.238281 0.5 -3.28125 C 0.5 -4.3125 0.773438 -5.132812 1.328125 -5.75 C 1.878906 -6.375 2.617188 -6.6875 3.546875 -6.6875 Z M 3.546875 -6.6875 "/>
</symbol>
<symbol overflow="visible" id="glyph0-2">
<path style="stroke:none;" d="M 0.890625 -6.5625 L 2.078125 -6.5625 L 4.984375 -1.078125 L 4.984375 -6.5625 L 5.84375 -6.5625 L 5.84375 0 L 4.65625 0 L 1.75 -5.484375 L 1.75 0 L 0.890625 0 Z M 0.890625 -6.5625 "/>
</symbol>
<symbol overflow="visible" id="glyph0-3">
<path style="stroke:none;" d="M 0.890625 -6.5625 L 1.765625 -6.5625 L 1.765625 -3.875 L 5 -3.875 L 5 -6.5625 L 5.890625 -6.5625 L 5.890625 0 L 5 0 L 5 -3.125 L 1.765625 -3.125 L 1.765625 0 L 0.890625 0 Z M 0.890625 -6.5625 "/>
</symbol>
</g>
</defs>
<g id="surface17429">
<rect x="0" y="0" width="300" height="300" style="fill:rgb(100%,100%,100%);fill-opacity:1;stroke:none;"/>
<path style="fill:none;stroke-width:1.2;stroke-linecap:butt;stroke-linejoin:miter;stroke:rgb(100%,0%,0%);stroke-opacity:1;stroke-miterlimit:10;" d="M 36.402344 157.4375 L 45.015625 152.546875 "/>
<path style="fill:none;stroke-width:1.2;stroke-linecap:butt;stroke-linejoin:miter;stroke:rgb(0%,0%,0%);stroke-opacity:1;stroke-miterlimit:10;" d="M 45.015625 152.546875 L 53.632812 147.652344 "/>
<path style="fill:none;stroke-width:1.2;stroke-linecap:butt;stroke-linejoin:miter;stroke:rgb(100%,0%,0%);stroke-opacity:1;stroke-miterlimit:10;" d="M 34.097656 153.382812 L 42.714844 148.492188 "/>
<path style="fill:none;stroke-width:1.2;stroke-linecap:butt;stroke-linejoin:miter;stroke:rgb(0%,0%,0%);stroke-opacity:1;stroke-miterlimit:10;" d="M 42.714844 148.492188 L 51.332031 143.601562 "/>
<path style=" stroke:none;fill-rule:nonzero;fill:rgb(100%,100%,100%);fill-opacity:1;" d="M 27.25 149.910156 L 35.25 149.910156 L 35.25 160.910156 L 27.25 160.910156 Z M 27.25 149.910156 "/>
<g style="fill:rgb(100%,0%,0%);fill-opacity:1;">
  <use xlink:href="#glyph0-1" x="27.25" y="158.573242"/>
</g>
<path style="fill:none;stroke-width:1.2;stroke-linecap:butt;stroke-linejoin:miter;stroke:rgb(0%,0%,0%);stroke-opacity:1;stroke-miterlimit:10;" d="M 52.480469 145.625 L 52.554688 135.71875 "/>
<path style="fill:none;stroke-width:1.2;stroke-linecap:butt;stroke-linejoin:miter;stroke:rgb(0%,0%,100%);stroke-opacity:1;stroke-miterlimit:10;" d="M 52.554688 135.71875 L 52.625 125.8125 "/>
<path style="fill:none;stroke-width:1.2;stroke-linecap:butt;stroke-linejoin:miter;stroke:rgb(0%,0%,0%);stroke-opacity:1;stroke-miterlimit:10;" d="M 52.480469 145.625 L 69.570312 155.660156 "/>
<path style="fill:none;stroke-width:1.2;stroke-linecap:butt;stroke-linejoin:miter;stroke:rgb(0%,0%,100%);stroke-opacity:1;stroke-miterlimit:10;" d="M 52.625 125.8125 L 44.082031 120.796875 "/>
<path style="fill:none;stroke-width:1.2;stroke-linecap:butt;stroke-linejoin:miter;stroke:rgb(0%,0%,0%);stroke-opacity:1;stroke-miterlimit:10;" d="M 44.082031 120.796875 L 35.539062 115.78125 "/>
<path style=" stroke:none;fill-rule:nonzero;fill:rgb(100%,100%,100%);fill-opacity:1;" d="M 45.625 120.3125 L 59.625 120.3125 L 59.625 131.3125 L 45.625 131.3125 Z M 45.625 120.3125 "/>
<g style="fill:rgb(0%,0%,100%);fill-opacity:1;">
  <use xlink:href="#glyph0-2" x="45.625" y="128.975586"/>
  <use xlink:href="#glyph0-3" x="52.602539" y="128.975586"/>
</g>
<path style="fill:none;stroke-width:1.2;stroke-linecap:butt;stroke-linejoin:miter;stroke:rgb(0%,0%,0%);stroke-opacity:1;stroke-miterlimit:10;" d="M 69.570312 155.660156 L 86.800781 145.875 "/>
<path style="fill:none;stroke-width:1.2;stroke-linecap:butt;stroke-linejoin:miter;stroke:rgb(0%,0%,0%);stroke-opacity:1;stroke-miterlimit:10;" d="M 73.59375 158.734375 L 87.378906 150.910156 "/>
<path style="fill:none;stroke-width:1.2;stroke-linecap:butt;stroke-linejoin:miter;stroke:rgb(0%,0%,0%);stroke-opacity:1;stroke-miterlimit:10;" d="M 69.425781 175.472656 L 69.570312 155.660156 "/>
<path style="fill:none;stroke-width:1.2;stroke-linecap:butt;stroke-linejoin:miter;stroke:rgb(0%,0%,0%);stroke-opacity:1;stroke-miterlimit:10;" d="M 86.800781 145.875 L 103.886719 155.90625 "/>
<path style="fill:none;stroke-width:1.2;stroke-linecap:butt;stroke-linejoin:miter;stroke:rgb(0%,0%,0%);stroke-opacity:1;stroke-miterlimit:10;" d="M 103.886719 155.90625 L 112.503906 151.015625 "/>
<path style="fill:none;stroke-width:1.2;stroke-linecap:butt;stroke-linejoin:miter;stroke:rgb(0%,0%,100%);stroke-opacity:1;stroke-miterlimit:10;" d="M 112.503906 151.015625 L 121.117188 146.125 "/>
<path style="fill:none;stroke-width:1.2;stroke-linecap:butt;stroke-linejoin:miter;stroke:rgb(0%,0%,0%);stroke-opacity:1;stroke-miterlimit:10;" d="M 103.886719 155.90625 L 103.742188 175.722656 "/>
<path style="fill:none;stroke-width:1.2;stroke-linecap:butt;stroke-linejoin:miter;stroke:rgb(0%,0%,0%);stroke-opacity:1;stroke-miterlimit:10;" d="M 99.210938 157.855469 L 99.097656 173.707031 "/>
<path style="fill:none;stroke-width:1.2;stroke-linecap:butt;stroke-linejoin:miter;stroke:rgb(0%,0%,100%);stroke-opacity:1;stroke-miterlimit:10;" d="M 121.117188 146.125 L 129.664062 151.140625 "/>
<path style="fill:none;stroke-width:1.2;stroke-linecap:butt;stroke-linejoin:miter;stroke:rgb(0%,0%,0%);stroke-opacity:1;stroke-miterlimit:10;" d="M 129.664062 151.140625 L 138.207031 156.15625 "/>
<path style=" stroke:none;fill-rule:nonzero;fill:rgb(100%,100%,100%);fill-opacity:1;" d="M 114.117188 140.625 L 128.117188 140.625 L 128.117188 151.625 L 114.117188 151.625 Z M 114.117188 140.625 "/>
<g style="fill:rgb(0%,0%,100%);fill-opacity:1;">
  <use xlink:href="#glyph0-2" x="114.117188" y="149.288086"/>
  <use xlink:href="#glyph0-3" x="121.094727" y="149.288086"/>
</g>
<path style="fill:none;stroke-width:1.2;stroke-linecap:butt;stroke-linejoin:miter;stroke:rgb(0%,0%,0%);stroke-opacity:1;stroke-miterlimit:10;" d="M 138.207031 156.15625 L 138.132812 166.0625 "/>
<path style="fill:none;stroke-width:1.2;stroke-linecap:butt;stroke-linejoin:miter;stroke:rgb(0%,0%,100%);stroke-opacity:1;stroke-miterlimit:10;" d="M 138.132812 166.0625 L 138.0625 175.96875 "/>
<path style="fill:none;stroke-width:1.2;stroke-linecap:butt;stroke-linejoin:miter;stroke:rgb(0%,0%,0%);stroke-opacity:1;stroke-miterlimit:10;" d="M 142.855469 158.171875 L 142.796875 166.097656 "/>
<path style="fill:none;stroke-width:1.2;stroke-linecap:butt;stroke-linejoin:miter;stroke:rgb(0%,0%,100%);stroke-opacity:1;stroke-miterlimit:10;" d="M 142.796875 166.097656 L 142.738281 174.023438 "/>
<path style="fill:none;stroke-width:1.2;stroke-linecap:butt;stroke-linejoin:miter;stroke:rgb(0%,0%,0%);stroke-opacity:1;stroke-miterlimit:10;" d="M 155.4375 146.375 L 138.207031 156.15625 "/>
<path style="fill:none;stroke-width:1.2;stroke-linecap:butt;stroke-linejoin:miter;stroke:rgb(0%,0%,100%);stroke-opacity:1;stroke-miterlimit:10;" d="M 138.0625 175.96875 L 146.605469 180.988281 "/>
<path style="fill:none;stroke-width:1.2;stroke-linecap:butt;stroke-linejoin:miter;stroke:rgb(0%,0%,0%);stroke-opacity:1;stroke-miterlimit:10;" d="M 146.605469 180.988281 L 155.148438 186.003906 "/>
<path style=" stroke:none;fill-rule:nonzero;fill:rgb(100%,100%,100%);fill-opacity:1;" d="M 135.0625 170.46875 L 142.0625 170.46875 L 142.0625 181.46875 L 135.0625 181.46875 Z M 135.0625 170.46875 "/>
<g style="fill:rgb(0%,0%,100%);fill-opacity:1;">
  <use xlink:href="#glyph0-2" x="135.0625" y="179.131836"/>
</g>
<path style="fill:none;stroke-width:1.2;stroke-linecap:butt;stroke-linejoin:miter;stroke:rgb(0%,0%,0%);stroke-opacity:1;stroke-miterlimit:10;" d="M 155.148438 186.003906 L 163.765625 181.109375 "/>
<path style="fill:none;stroke-width:1.2;stroke-linecap:butt;stroke-linejoin:miter;stroke:rgb(0%,0%,100%);stroke-opacity:1;stroke-miterlimit:10;" d="M 163.765625 181.109375 L 172.382812 176.21875 "/>
<path style="fill:none;stroke-width:1.2;stroke-linecap:butt;stroke-linejoin:miter;stroke:rgb(0%,0%,0%);stroke-opacity:1;stroke-miterlimit:10;" d="M 154.570312 180.96875 L 161.464844 177.054688 "/>
<path style="fill:none;stroke-width:1.2;stroke-linecap:butt;stroke-linejoin:miter;stroke:rgb(0%,0%,100%);stroke-opacity:1;stroke-miterlimit:10;" d="M 161.464844 177.054688 L 168.355469 173.144531 "/>
<path style="fill:none;stroke-width:1.2;stroke-linecap:butt;stroke-linejoin:miter;stroke:rgb(0%,0%,100%);stroke-opacity:1;stroke-miterlimit:10;" d="M 172.382812 176.21875 L 172.453125 166.3125 "/>
<path style="fill:none;stroke-width:1.2;stroke-linecap:butt;stroke-linejoin:miter;stroke:rgb(0%,0%,0%);stroke-opacity:1;stroke-miterlimit:10;" d="M 172.453125 166.3125 L 172.523438 156.40625 "/>
<path style=" stroke:none;fill-rule:nonzero;fill:rgb(100%,100%,100%);fill-opacity:1;" d="M 169.382812 170.71875 L 176.382812 170.71875 L 176.382812 181.71875 L 169.382812 181.71875 Z M 169.382812 170.71875 "/>
<g style="fill:rgb(0%,0%,100%);fill-opacity:1;">
  <use xlink:href="#glyph0-2" x="169.382812" y="179.381836"/>
</g>
<path style="fill:none;stroke-width:1.2;stroke-linecap:butt;stroke-linejoin:miter;stroke:rgb(0%,0%,0%);stroke-opacity:1;stroke-miterlimit:10;" d="M 172.523438 156.40625 L 179.933594 149.832031 "/>
<path style="fill:none;stroke-width:1.2;stroke-linecap:butt;stroke-linejoin:miter;stroke:rgb(0%,0%,100%);stroke-opacity:1;stroke-miterlimit:10;" d="M 179.933594 149.832031 L 187.347656 143.253906 "/>
<path style="fill:none;stroke-width:1.2;stroke-linecap:butt;stroke-linejoin:miter;stroke:rgb(0%,0%,0%);stroke-opacity:1;stroke-miterlimit:10;" d="M 155.4375 146.375 L 172.523438 156.40625 "/>
<path style="fill:none;stroke-width:1.2;stroke-linecap:butt;stroke-linejoin:miter;stroke:rgb(0%,0%,0%);stroke-opacity:1;stroke-miterlimit:10;" d="M 154.785156 151.398438 L 168.457031 159.421875 "/>
<path style="fill:none;stroke-width:1.2;stroke-linecap:butt;stroke-linejoin:miter;stroke:rgb(0%,0%,100%);stroke-opacity:1;stroke-miterlimit:10;" d="M 187.347656 143.253906 L 179.417969 125.09375 "/>
<path style="fill:none;stroke-width:1.2;stroke-linecap:butt;stroke-linejoin:miter;stroke:rgb(0%,0%,100%);stroke-opacity:1;stroke-miterlimit:10;" d="M 187.347656 143.253906 L 197.019531 145.382812 "/>
<path style="fill:none;stroke-width:1.2;stroke-linecap:butt;stroke-linejoin:miter;stroke:rgb(0%,0%,0%);stroke-opacity:1;stroke-miterlimit:10;" d="M 197.019531 145.382812 L 206.695312 147.515625 "/>
<path style=" stroke:none;fill-rule:nonzero;fill:rgb(100%,100%,100%);fill-opacity:1;" d="M 184.347656 137.753906 L 191.347656 137.753906 L 191.347656 148.753906 L 184.347656 148.753906 Z M 184.347656 137.753906 "/>
<g style="fill:rgb(0%,0%,100%);fill-opacity:1;">
  <use xlink:href="#glyph0-2" x="184.347656" y="146.416992"/>
</g>
<path style="fill:none;stroke-width:1.2;stroke-linecap:butt;stroke-linejoin:miter;stroke:rgb(0%,0%,100%);stroke-opacity:1;stroke-miterlimit:10;" d="M 179.417969 125.09375 L 169.558594 126.058594 "/>
<path style="fill:none;stroke-width:1.2;stroke-linecap:butt;stroke-linejoin:miter;stroke:rgb(0%,0%,0%);stroke-opacity:1;stroke-miterlimit:10;" d="M 169.558594 126.058594 L 159.699219 127.023438 "/>
<path style="fill:none;stroke-width:1.2;stroke-linecap:butt;stroke-linejoin:miter;stroke:rgb(0%,0%,100%);stroke-opacity:1;stroke-miterlimit:10;" d="M 177.898438 129.929688 L 170.011719 130.699219 "/>
<path style="fill:none;stroke-width:1.2;stroke-linecap:butt;stroke-linejoin:miter;stroke:rgb(0%,0%,0%);stroke-opacity:1;stroke-miterlimit:10;" d="M 170.011719 130.699219 L 162.125 131.46875 "/>
<path style=" stroke:none;fill-rule:nonzero;fill:rgb(100%,100%,100%);fill-opacity:1;" d="M 176.417969 119.59375 L 183.417969 119.59375 L 183.417969 130.59375 L 176.417969 130.59375 Z M 176.417969 119.59375 "/>
<g style="fill:rgb(0%,0%,100%);fill-opacity:1;">
  <use xlink:href="#glyph0-2" x="176.417969" y="128.256836"/>
</g>
<path style="fill:none;stroke-width:1.2;stroke-linecap:butt;stroke-linejoin:miter;stroke:rgb(0%,0%,0%);stroke-opacity:1;stroke-miterlimit:10;" d="M 159.699219 127.023438 L 155.4375 146.375 "/>
<path style="fill:none;stroke-width:1.2;stroke-linecap:butt;stroke-linejoin:miter;stroke:rgb(0%,0%,0%);stroke-opacity:1;stroke-miterlimit:10;" d="M 206.695312 147.515625 L 212.683594 166.402344 "/>
<path style="fill:none;stroke-width:1.2;stroke-linecap:butt;stroke-linejoin:miter;stroke:rgb(0%,0%,0%);stroke-opacity:1;stroke-miterlimit:10;" d="M 211.738281 147.996094 L 216.527344 163.105469 "/>
<path style="fill:none;stroke-width:1.2;stroke-linecap:butt;stroke-linejoin:miter;stroke:rgb(0%,0%,0%);stroke-opacity:1;stroke-miterlimit:10;" d="M 220.0625 132.886719 L 206.695312 147.515625 "/>
<path style="fill:none;stroke-width:1.2;stroke-linecap:butt;stroke-linejoin:miter;stroke:rgb(0%,0%,0%);stroke-opacity:1;stroke-miterlimit:10;" d="M 212.683594 166.402344 L 232.035156 170.664062 "/>
<path style="fill:none;stroke-width:1.2;stroke-linecap:butt;stroke-linejoin:miter;stroke:rgb(0%,0%,0%);stroke-opacity:1;stroke-miterlimit:10;" d="M 212.683594 166.402344 L 199.316406 181.03125 "/>
<path style="fill:none;stroke-width:1.2;stroke-linecap:butt;stroke-linejoin:miter;stroke:rgb(0%,0%,0%);stroke-opacity:1;stroke-miterlimit:10;" d="M 232.035156 170.664062 L 245.398438 156.035156 "/>
<path style="fill:none;stroke-width:1.2;stroke-linecap:butt;stroke-linejoin:miter;stroke:rgb(0%,0%,0%);stroke-opacity:1;stroke-miterlimit:10;" d="M 229.929688 166.054688 L 240.621094 154.351562 "/>
<path style="fill:none;stroke-width:1.2;stroke-linecap:butt;stroke-linejoin:miter;stroke:rgb(0%,0%,0%);stroke-opacity:1;stroke-miterlimit:10;" d="M 245.398438 156.035156 L 239.414062 137.148438 "/>
<path style="fill:none;stroke-width:1.2;stroke-linecap:butt;stroke-linejoin:miter;stroke:rgb(0%,0%,0%);stroke-opacity:1;stroke-miterlimit:10;" d="M 245.398438 156.035156 L 264.75 160.296875 "/>
<path style="fill:none;stroke-width:1.2;stroke-linecap:butt;stroke-linejoin:miter;stroke:rgb(0%,0%,0%);stroke-opacity:1;stroke-miterlimit:10;" d="M 239.414062 137.148438 L 220.0625 132.886719 "/>
<path style="fill:none;stroke-width:1.2;stroke-linecap:butt;stroke-linejoin:miter;stroke:rgb(0%,0%,0%);stroke-opacity:1;stroke-miterlimit:10;" d="M 236.476562 141.273438 L 220.996094 137.867188 "/>
<path style="fill:none;stroke-width:1.2;stroke-linecap:butt;stroke-linejoin:miter;stroke:rgb(0%,0%,0%);stroke-opacity:1;stroke-miterlimit:10;" d="M 220.0625 132.886719 L 214.074219 113.996094 "/>
<path style="fill:none;stroke-width:1.2;stroke-linecap:butt;stroke-linejoin:miter;stroke:rgb(0%,0%,0%);stroke-opacity:1;stroke-miterlimit:10;" d="M 103.742188 175.722656 L 86.511719 185.503906 "/>
<path style="fill:none;stroke-width:1.2;stroke-linecap:butt;stroke-linejoin:miter;stroke:rgb(0%,0%,0%);stroke-opacity:1;stroke-miterlimit:10;" d="M 103.742188 175.722656 L 120.832031 185.753906 "/>
<path style="fill:none;stroke-width:1.2;stroke-linecap:butt;stroke-linejoin:miter;stroke:rgb(0%,0%,0%);stroke-opacity:1;stroke-miterlimit:10;" d="M 86.511719 185.503906 L 69.425781 175.472656 "/>
<path style="fill:none;stroke-width:1.2;stroke-linecap:butt;stroke-linejoin:miter;stroke:rgb(0%,0%,0%);stroke-opacity:1;stroke-miterlimit:10;" d="M 87.164062 180.480469 L 73.492188 172.453125 "/>
</g>
</svg>

<svg xmlns="http://www.w3.org/2000/svg" xmlns:xlink="http://www.w3.org/1999/xlink" width="300pt" height="300pt" viewBox="0 0 300 300"><defs><symbol overflow="visible"><path d="M.453 1.594v-7.938h4.5v7.938zm.5-.5h3.5v-6.938h-3.5zm0 0"/></symbol><symbol overflow="visible" id="a"><path d="M3.547-5.953c-.65 0-1.164.242-1.547.72-.375.48-.563 1.13-.563 1.952 0 .835.188 1.49.563 1.967.383.48.898.72 1.547.72.644 0 1.156-.24 1.53-.72.376-.476.564-1.132.564-1.968 0-.822-.187-1.474-.562-1.954-.375-.477-.887-.72-1.53-.72zm0-.734c.914 0 1.648.312 2.203.937.55.617.828 1.438.828 2.47 0 1.042-.277 1.87-.828 2.483-.555.617-1.29.922-2.203.922-.93 0-1.668-.305-2.22-.922C.774-1.41.5-2.237.5-3.28c0-1.033.273-1.853.828-2.47.55-.625 1.29-.938 2.22-.938zm0 0"/></symbol><symbol overflow="visible" id="b"><path d="M.89-6.563H2.08l2.906 5.485v-5.484h.86V0H4.656L1.75-5.484V0H.89zm0 0"/></symbol><symbol overflow="visible" id="c"><path d="M.89-6.563h.876v2.688H5v-2.688h.89V0H5v-3.125H1.766V0H.89zm0 0"/></symbol></defs><g><path fill="#fff" d="M0 0h300v300H0z"/><path d="M36.402 157.438l8.614-4.89" stroke-width="1.2" stroke="#f00" stroke-miterlimit="10" fill="none"/><path d="M45.016 152.547l8.617-4.895" stroke-width="1.2" stroke="#000" stroke-miterlimit="10" fill="none"/><path d="M34.098 153.383l8.617-4.89" stroke-width="1.2" stroke="#f00" stroke-miterlimit="10" fill="none"/><path d="M42.715 148.492l8.617-4.89" stroke-width="1.2" stroke="#000" stroke-miterlimit="10" fill="none"/><path d="M27.25 149.91h8v11h-8zm0 0" fill="#fff"/><use xlink:href="#a" x="27.25" y="158.573" fill="#f00"/><path d="M52.48 145.625l.075-9.906" stroke-width="1.2" stroke="#000" stroke-miterlimit="10" fill="none"/><path d="M52.555 135.72l.07-9.907" stroke-width="1.2" stroke="#00f" stroke-miterlimit="10" fill="none"/><path d="M52.48 145.625l17.09 10.035" stroke-width="1.2" stroke="#000" stroke-miterlimit="10" fill="none"/><path d="M52.625 125.813l-8.543-5.016" stroke-width="1.2" stroke="#00f" stroke-miterlimit="10" fill="none"/><path d="M44.082 120.797l-8.543-5.016" stroke-width="1.2" stroke="#000" stroke-miterlimit="10" fill="none"/><path d="M45.625 120.313h14v11h-14zm0 0" fill="#fff"/><g fill="#00f"><use xlink:href="#b" x="45.625" y="128.976"/><use xlink:href="#c" x="52.603" y="128.976"/></g><path d="M69.57 155.66l17.23-9.785M73.594 158.734l13.785-7.824M69.426 175.473l.144-19.813M86.8 145.875l17.087 10.03M103.887 155.906l8.617-4.89" stroke-width="1.2" stroke="#000" stroke-miterlimit="10" fill="none"/><path d="M112.504 151.016l8.613-4.89" stroke-width="1.2" stroke="#00f" stroke-miterlimit="10" fill="none"/><path d="M103.887 155.906l-.145 19.817M99.21 157.855l-.112 15.852" stroke-width="1.2" stroke="#000" stroke-miterlimit="10" fill="none"/><path d="M121.117 146.125l8.547 5.016" stroke-width="1.2" stroke="#00f" stroke-miterlimit="10" fill="none"/><path d="M129.664 151.14l8.543 5.016" stroke-width="1.2" stroke="#000" stroke-miterlimit="10" fill="none"/><path d="M114.117 140.625h14v11h-14zm0 0" fill="#fff"/><g fill="#00f"><use xlink:href="#b" x="114.117" y="149.288"/><use xlink:href="#c" x="121.095" y="149.288"/></g><path d="M138.207 156.156l-.074 9.906" stroke-width="1.2" stroke="#000" stroke-miterlimit="10" fill="none"/><path d="M138.133 166.063l-.07 9.906" stroke-width="1.2" stroke="#00f" stroke-miterlimit="10" fill="none"/><path d="M142.855 158.172l-.058 7.926" stroke-width="1.2" stroke="#000" stroke-miterlimit="10" fill="none"/><path d="M142.797 166.098l-.06 7.925" stroke-width="1.2" stroke="#00f" stroke-miterlimit="10" fill="none"/><path d="M155.438 146.375l-17.23 9.78" stroke-width="1.2" stroke="#000" stroke-miterlimit="10" fill="none"/><path d="M138.063 175.97l8.542 5.018" stroke-width="1.2" stroke="#00f" stroke-miterlimit="10" fill="none"/><path d="M146.605 180.988l8.543 5.016" stroke-width="1.2" stroke="#000" stroke-miterlimit="10" fill="none"/><path d="M135.063 170.47h7v11h-7zm0 0" fill="#fff"/><use xlink:href="#b" x="135.063" y="179.132" fill="#00f"/><path d="M155.148 186.004l8.618-4.895" stroke-width="1.2" stroke="#000" stroke-miterlimit="10" fill="none"/><path d="M163.766 181.11l8.617-4.89" stroke-width="1.2" stroke="#00f" stroke-miterlimit="10" fill="none"/><path d="M154.57 180.97l6.895-3.915" stroke-width="1.2" stroke="#000" stroke-miterlimit="10" fill="none"/><path d="M161.465 177.055l6.89-3.91M172.383 176.22l.07-9.907" stroke-width="1.2" stroke="#00f" stroke-miterlimit="10" fill="none"/><path d="M172.453 166.313l.07-9.907" stroke-width="1.2" stroke="#000" stroke-miterlimit="10" fill="none"/><path d="M169.383 170.72h7v11h-7zm0 0" fill="#fff"/><use xlink:href="#b" x="169.383" y="179.382" fill="#00f"/><path d="M172.523 156.406l7.41-6.574" stroke-width="1.2" stroke="#000" stroke-miterlimit="10" fill="none"/><path d="M179.934 149.832l7.414-6.578" stroke-width="1.2" stroke="#00f" stroke-miterlimit="10" fill="none"/><path d="M155.438 146.375l17.085 10.03M154.785 151.398l13.672 8.024" stroke-width="1.2" stroke="#000" stroke-miterlimit="10" fill="none"/><path d="M187.348 143.254l-7.93-18.16M187.348 143.254l9.672 2.13" stroke-width="1.2" stroke="#00f" stroke-miterlimit="10" fill="none"/><path d="M197.02 145.383l9.675 2.133" stroke-width="1.2" stroke="#000" stroke-miterlimit="10" fill="none"/><path d="M184.348 137.754h7v11h-7zm0 0" fill="#fff"/><use xlink:href="#b" x="184.348" y="146.417" fill="#00f"/><path d="M179.418 125.094l-9.86.965" stroke-width="1.2" stroke="#00f" stroke-miterlimit="10" fill="none"/><path d="M169.56 126.06l-9.86.963" stroke-width="1.2" stroke="#000" stroke-miterlimit="10" fill="none"/><path d="M177.898 129.93l-7.886.77" stroke-width="1.2" stroke="#00f" stroke-miterlimit="10" fill="none"/><path d="M170.012 130.7l-7.887.77" stroke-width="1.2" stroke="#000" stroke-miterlimit="10" fill="none"/><path d="M176.418 119.594h7v11h-7zm0 0" fill="#fff"/><use xlink:href="#b" x="176.418" y="128.257" fill="#00f"/><path d="M159.7 127.023l-4.262 19.352M206.695 147.516l5.99 18.886M211.738 147.996l4.79 15.11M220.063 132.887l-13.368 14.63M212.684 166.402l19.35 4.262M212.684 166.402l-13.368 14.63M232.035 170.664l13.363-14.63M229.93 166.055l10.69-11.703M245.398 156.035l-5.984-18.887M245.398 156.035l19.352 4.262M239.414 137.148l-19.35-4.26M236.477 141.273l-15.48-3.406M220.063 132.887l-5.99-18.89M103.742 175.723l-17.23 9.78M103.742 175.723l17.09 10.03M86.512 185.504l-17.086-10.03M87.164 180.48l-13.672-8.027" stroke-width="1.2" stroke="#000" stroke-miterlimit="10" fill="none"/></g></svg>
